X: 1
T: Going To The Well For Water
R: slide
M: 12/8
L: 1/8
K: Dmaj
A2f A2f A2f fed|Bgg Bgg Bgg gfe|
cdc BcB Ace a2f|1 g2e cde d3 dcB:|2 g2e cde d3 d2e||
|:f2f fed e2e edc|d2d dcB c2c cBA|
GBB GBB FAA FAA|1 EDE e2d cBc d2e:|2 EDE e2d cBc d3||


Tune 455	Setting 26321

